; generated by PrusaSlicer 2.5.2+MacOS-x64 on 2023-05-25 at 01:50:31 UTC


;
;

;
;
; TODO: check the size of the extruder and the y-bar clearance. Optimize & test supports.

; external perimeters extrusion width = 0.42mm
; perimeters extrusion width = 0.44mm
; infill extrusion width = 0.44mm
; solid infill extrusion width = 0.44mm
; top infill extrusion width = 0.44mm
; first layer extrusion width = 0.56mm

M107
M190 S55 ; set bed temperature and wait for it to be reached
M104 S215 ; set temperature
;TYPE:Custom
; M190 S0
; M109 S0 ; uncomment to remove set&wait temp gcode added automatically after this start gcode
print_start EXTRUDER=215 BED=55
M109 S215 ; set temperature and wait for it to be reached
G21 ; set units to millimeters
G90 ; use absolute coordinates
M83 ; use relative distances for extrusion
M107
;LAYER_CHANGE
;Z:0.2
;HEIGHT:0.2
;BEFORE_LAYER_CHANGE
;0.2
G92 E0

G1 Z.2 F18000
;AFTER_LAYER_CHANGE
;0.2
G1 E-2 F3000
G1 Z.6 F18000
G1 X41.906 Y41.705
G1 Z.2
G1 E2 F1800
M204 S1000
;TYPE:Skirt/Brim
;WIDTH:0.56
G1 X42.453 Y41.231 E.03109
G1 X43.54 Y40.532 E.05557
G1 X44.465 Y40.132 E.04334
G1 X45.159 Y39.929 E.03109
G1 X46.154 Y39.765 E.04334
G1 X73.562 Y39.745 E1.17841
G1 X74.841 Y39.929 E.05557
G1 X75.802 Y40.232 E.04334
G1 X76.71 Y40.669 E.04334
G1 X77.319 Y41.06 E.03109
G1 X78.094 Y41.705 E.04334
G1 X78.769 Y42.453 E.04334
G1 X79.468 Y43.54 E.05557
G1 X79.868 Y44.465 E.04334
G1 X80.071 Y45.159 E.03109
G1 X80.235 Y46.154 E.04334
G1 X80.255 Y73.562 E1.17841
G1 X80.132 Y74.562 E.04334
G1 X79.868 Y75.535 E.04334
G1 X79.331 Y76.71 E.05557
G1 X78.769 Y77.547 E.04334
G1 X78.094 Y78.295 E.04334
G1 X77.547 Y78.769 E.03109
G1 X76.46 Y79.468 E.05557
G1 X75.802 Y79.768 E.03109
G1 X74.841 Y80.071 E.04334
G1 X73.206 Y80.268 E.0708
G1 X46.438 Y80.255 E1.15087
G1 X45.438 Y80.132 E.04334
G1 X44.465 Y79.868 E.04334
G1 X43.29 Y79.331 E.05557
G1 X42.453 Y78.769 E.04334
G1 X41.705 Y78.094 E.04334
G1 X41.231 Y77.547 E.03109
G1 X40.532 Y76.46 E.05557
G1 X40.232 Y75.802 E.03109
G1 X39.929 Y74.841 E.04334
G1 X39.732 Y73.206 E.0708
G1 X39.745 Y46.438 E1.15087
G1 X39.868 Y45.438 E.04334
G1 X40.132 Y44.465 E.04334
G1 X40.669 Y43.29 E.05557
G1 X41.231 Y42.453 E.04334
G1 X41.866 Y41.749 E.04076
M204 S3000
G1 X42.262 Y42.145 F18000
M204 S1000
G1 F1800
G1 X42.763 Y41.645 E.03042
G1 X43.788 Y40.986 E.05239
G1 X44.646 Y40.617 E.04017
G1 X46.191 Y40.281 E.06797
G1 X73.525 Y40.26 E1.17523
G1 X74.731 Y40.434 E.0524
G1 X75.621 Y40.716 E.04017
G1 X77.009 Y41.474 E.06797
G1 X77.728 Y42.07 E.04017
G1 X78.355 Y42.763 E.04017
G1 X79.014 Y43.788 E.05239
G1 X79.383 Y44.646 E.04017
G1 X79.719 Y46.191 E.06797
G1 X79.74 Y73.525 E1.17523
G1 X79.627 Y74.452 E.04017
G1 X79.383 Y75.354 E.04017
G1 X78.877 Y76.462 E.05239
G1 X78.355 Y77.237 E.04017
G1 X77.237 Y78.355 E.06797
G1 X76.212 Y79.014 E.05239
G1 X74.731 Y79.566 E.06797
G1 X73.206 Y79.751 E.06605
G1 X46.475 Y79.74 E1.14928
G1 X45.548 Y79.627 E.04017
G1 X44.646 Y79.383 E.04017
G1 X43.538 Y78.877 E.05239
G1 X42.763 Y78.355 E.04017
G1 X41.645 Y77.237 E.06797
G1 X40.986 Y76.212 E.05239
G1 X40.434 Y74.731 E.06797
G1 X40.249 Y73.206 E.06605
G1 X40.26 Y46.475 E1.14928
G1 X40.373 Y45.548 E.04017
G1 X40.617 Y44.646 E.04017
G1 X41.123 Y43.538 E.05239
G1 X41.645 Y42.763 E.04017
G1 X42.22 Y42.188 E.03496
M204 S3000
G1 X42.582 Y42.55 F18000
M204 S1000
G1 F1800
G1 X43.073 Y42.059 E.02984
G1 X44.036 Y41.44 E.04922
G1 X44.827 Y41.101 E.037
G1 X46.228 Y40.796 E.06164
G1 X73.488 Y40.776 E1.17206
G1 X74.621 Y40.939 E.04922
G1 X75.441 Y41.201 E.037
G1 X76.699 Y41.888 E.06164
G1 X77.362 Y42.436 E.037
G1 X77.941 Y43.073 E.037
G1 X78.56 Y44.036 E.04922
G1 X78.899 Y44.827 E.037
G1 X79.204 Y46.228 E.06164
G1 X79.224 Y73.488 E1.17206
G1 X79.122 Y74.342 E.037
G1 X78.899 Y75.173 E.037
G1 X78.423 Y76.215 E.04922
G1 X77.941 Y76.927 E.037
G1 X76.927 Y77.941 E.06164
G1 X75.964 Y78.56 E.04922
G1 X74.621 Y79.061 E.06164
G1 X73.206 Y79.234 E.0613
G1 X46.512 Y79.224 E1.1477
G1 X45.658 Y79.122 E.037
G1 X44.827 Y78.899 E.037
G1 X43.785 Y78.423 E.04922
G1 X43.073 Y77.941 E.037
G1 X42.059 Y76.927 E.06164
G1 X41.44 Y75.964 E.04922
G1 X40.939 Y74.621 E.06164
G1 X40.766 Y73.206 E.0613
G1 X40.776 Y46.512 E1.1477
G1 X40.878 Y45.658 E.037
G1 X41.101 Y44.827 E.037
G1 X41.577 Y43.785 E.04922
G1 X42.059 Y43.073 E.037
G1 X42.54 Y42.592 E.02922
M204 S3000
G1 X42.901 Y42.954 F18000
M204 S1000
G1 F1800
G1 X43.383 Y42.473 E.02926
G1 X44.284 Y41.894 E.04605
G1 X45.489 Y41.444 E.05531
G1 X46.543 Y41.292 E.04581
G1 X73.451 Y41.292 E1.1569
G1 X74.511 Y41.444 E.04605
G1 X75.26 Y41.685 E.03383
G1 X76.389 Y42.302 E.05531
G1 X76.997 Y42.802 E.03382
G1 X77.527 Y43.383 E.03382
G1 X78.106 Y44.284 E.04605
G1 X78.414 Y45.007 E.03383
G1 X78.688 Y46.264 E.05531
G1 X78.708 Y73.451 E1.16889
G1 X78.616 Y74.232 E.03382
G1 X78.414 Y74.993 E.03382
G1 X77.969 Y75.967 E.04605
G1 X77.527 Y76.617 E.03383
G1 X76.617 Y77.527 E.05531
G1 X75.716 Y78.106 E.04605
G1 X74.511 Y78.556 E.05531
G1 X73.206 Y78.717 E.05655
G1 X46.549 Y78.708 E1.14611
G1 X45.768 Y78.616 E.03382
G1 X45.007 Y78.414 E.03382
G1 X44.033 Y77.969 E.04605
G1 X43.383 Y77.527 E.03383
G1 X42.473 Y76.617 E.05531
G1 X41.894 Y75.716 E.04605
G1 X41.444 Y74.511 E.05531
G1 X41.283 Y73.206 E.05655
G1 X41.292 Y46.549 E1.14611
G1 X41.384 Y45.768 E.03382
G1 X41.586 Y45.007 E.03382
G1 X42.031 Y44.033 E.04605
G1 X42.473 Y43.383 E.03383
G1 X42.859 Y42.997 E.02347
M204 S3000
G1 E-2 F3000
G1 Z.6 F18000
G1 X50.793 Y72.925
G1 Z.2
G1 E2 F1800
M204 S1000
;TYPE:Perimeter
;WIDTH:0.674595
G1 X51.461 Y73.378 E.04238
G1 X52.043 Y73.729 E.03572
G1 X50.43 Y73.729 E.08472
G1 X50.666 Y73.27 E.02711
G1 X50.772 Y72.981 E.01615
M204 S3000
G1 X50.292 Y71.845 F18000
M204 S1000
;WIDTH:0.559999
G1 F1800
G1 X51.061 Y72.412 E.04108
G1 X51.757 Y72.886 E.03621
G1 X52.491 Y73.327 E.0368
G1 X53.248 Y73.726 E.0368
G1 X54.026 Y74.082 E.0368
G1 X54.589 Y74.304 E.02601
G1 X48.91 Y74.303 E.24418
G1 X49.361 Y74.054 E.02213
G1 X49.769 Y73.668 E.02414
G1 X49.927 Y73.456 E.01139
G1 X50.252 Y72.748 E.03352
G1 X50.318 Y72.324 E.01844
G1 X50.295 Y71.905 E.01805
M204 S3000
G1 E-2 F3000
G1 Z.6 F18000
G1 X47.348 Y74.38
G1 Z.2
G1 E2 F1800
M204 S1000
;WIDTH:0.404945
G1 X47.026 Y74.38 E.00969
G1 X46.546 Y74.336 E.01451
G1 X46.19 Y74.198 E.01151
;WIDTH:0.411169
G1 X45.936 Y73.983 E.01016
G1 X45.716 Y73.668 E.01176
;WIDTH:0.383382
G1 X45.609 Y73.171 E.01441
G1 X45.608 Y72.587 E.01654
G1 X45.637 Y72.74 E.00441
G1 X45.801 Y73.12 E.01174
;WIDTH:0.395032
G1 X46.092 Y73.613 E.01675
;WIDTH:0.404945
G1 X46.486 Y73.993 E.01649
G1 X46.873 Y74.234 E.0137
G1 X47.29 Y74.363 E.01316
M204 S3000
G1 E-2 F3000
G1 Z.6 F18000
G1 X46.625 Y67.131
G1 Z.2
G1 E2 F1800
M204 S1000
;WIDTH:0.601639
G1 X45.716 Y67.131 E.04224
G1 X45.716 Y65.545 E.07369
G1 X46.053 Y66.333 E.03981
G1 X46.296 Y66.832 E.02581
G1 X46.581 Y67.09 E.01786
M204 S3000
G1 E-2 F3000
G1 Z.6 F18000
G1 X53.5 Y63.753
G1 Z.2
G1 E2 F1800
M204 S1000
;WIDTH:0.559999
G1 X53.552 Y63.531 E.00978
G1 X53.547 Y63.313 E.00938
G1 X53.471 Y62.998 E.01393
G1 X53.115 Y62.05 E.04354
G1 X52.935 Y61.282 E.03394
G1 X52.862 Y60.773 E.02211
G1 X52.824 Y60.254 E.02235
G1 X52.825 Y59.732 E.02244
G1 X52.863 Y59.21 E.02251
G1 X52.938 Y58.7 E.02216
G1 X53.05 Y58.196 E.02219
G1 X53.237 Y57.594 E.0271
G1 X53.494 Y56.95 E.02982
G1 X53.734 Y56.484 E.02257
G1 X54.008 Y56.036 E.02256
G1 X54.313 Y55.609 E.02257
G1 X54.649 Y55.205 E.02256
G1 X55.013 Y54.828 E.02256
G1 X55.404 Y54.477 E.02257
G1 X55.819 Y54.157 E.02256
G1 X56.257 Y53.867 E.02257
G1 X56.715 Y53.61 E.02256
G1 X57.19 Y53.387 E.02256
G1 X57.68 Y53.2 E.02256
G1 X58.183 Y53.049 E.02256
G1 X58.695 Y52.935 E.02257
G1 X59.37 Y52.834 E.02936
G1 X59.777 Y52.679 E.01871
G1 X60 Y52.492 E.01251
G1 X60.223 Y52.679 E.01251
G1 X60.406 Y52.769 E.00878
G1 X60.69 Y52.844 E.01264
G1 X61.305 Y52.935 E.02672
G1 X61.817 Y53.049 E.02257
G1 X62.32 Y53.2 E.02256
G1 X62.81 Y53.387 E.02256
G1 X63.285 Y53.61 E.02256
G1 X63.743 Y53.867 E.02256
G1 X64.181 Y54.157 E.02257
G1 X64.596 Y54.477 E.02256
G1 X64.987 Y54.828 E.02257
G1 X65.351 Y55.205 E.02256
G1 X65.687 Y55.609 E.02256
G1 X65.992 Y56.036 E.02256
G1 X66.266 Y56.484 E.02256
G1 X66.506 Y56.95 E.02257
G1 X66.711 Y57.433 E.02256
G1 X66.88 Y57.93 E.02257
G1 X67.013 Y58.438 E.02256
G1 X67.108 Y58.954 E.02256
G1 X67.166 Y59.476 E.02256
G1 X67.185 Y60 E.02256
G1 X67.166 Y60.524 E.02256
G1 X67.108 Y61.046 E.02256
G1 X67.013 Y61.562 E.02256
G1 X66.88 Y62.07 E.02256
G1 X66.711 Y62.567 E.02257
G1 X66.513 Y63.041 E.0221
G1 X66.446 Y63.48 E.0191
G1 X66.498 Y63.751 E.01187
G1 X66.237 Y63.842 E.01187
G1 X66.064 Y63.957 E.00893
G1 X65.85 Y64.168 E.01294
G1 X65.521 Y64.58 E.02266
G1 X65.143 Y65.011 E.02463
G1 X64.78 Y65.357 E.02156
G1 X64.382 Y65.688 E.02226
G1 X63.958 Y65.991 E.02242
G1 X63.511 Y66.263 E.02248
G1 X63.045 Y66.502 E.02251
G1 X62.563 Y66.707 E.02252
G1 X62.067 Y66.876 E.02254
G1 X61.56 Y67.009 E.02254
G1 X61.044 Y67.104 E.02254
G1 X60.523 Y67.161 E.02254
G1 X59.999 Y67.18 E.02255
G1 X59.475 Y67.161 E.02255
G1 X58.953 Y67.103 E.02256
G1 X58.437 Y67.008 E.02256
G1 X57.93 Y66.875 E.02256
G1 X57.433 Y66.705 E.02258
G1 X56.949 Y66.5 E.02259
G1 X56.482 Y66.259 E.02262
G1 X56.032 Y65.984 E.02268
G1 X55.618 Y65.688 E.02188
G1 X55.22 Y65.357 E.02226
G1 X54.857 Y65.011 E.02156
G1 X54.057 Y64.064 E.05329
G1 X53.718 Y63.818 E.01801
G1 X53.557 Y63.77 E.0072
M204 S3000
G1 E-2 F3000
G1 Z.6 F18000
G1 X47.087 Y50.784
G1 Z.2
G1 E2 F1800
M204 S1000
;WIDTH:0.670842
G1 X46.721 Y51.311 E.03347
G1 X46.269 Y52.044 E.04499
G1 X46.269 Y50.42 E.08478
G1 X46.69 Y50.661 E.02529
G1 X47.03 Y50.766 E.01857
M204 S3000
G1 X48.157 Y50.325 F18000
M204 S1000
;WIDTH:0.559999
G1 F1800
G1 X47.68 Y50.935 E.03324
G1 X47.208 Y51.612 E.03549
G1 X46.759 Y52.34 E.0368
G1 X46.351 Y53.093 E.0368
G1 X45.986 Y53.867 E.0368
G1 X45.697 Y54.58 E.03309
G1 X45.697 Y48.941 E.24244
G1 X45.734 Y49.023 E.00386
G1 X46.05 Y49.491 E.0243
G1 X46.232 Y49.68 E.01127
G1 X46.686 Y50.016 E.0243
G1 X46.921 Y50.135 E.0113
G1 X47.658 Y50.333 E.03282
G1 X48.097 Y50.326 E.01886
M204 S3000
G1 E-2 F3000
G1 Z.6 F18000
G1 X45.62 Y47.292
G1 Z.2
G1 E2 F1800
M204 S1000
;WIDTH:0.404966
G1 X45.672 Y46.489 E.02423
G1 X45.802 Y46.19 E.00985
;WIDTH:0.412009
G1 X46.017 Y45.936 E.01018
G1 X46.288 Y45.736 E.01033
;WIDTH:0.383021
G1 X46.67 Y45.62 E.01129
;WIDTH:0.399192
G1 X47.29 Y45.617 E.01839
G1 X47.099 Y45.684 E.006
;WIDTH:0.390671
G1 X46.484 Y46.013 E.02018
;WIDTH:0.404966
G1 X46.098 Y46.39 E.01624
G1 X45.879 Y46.676 E.01085
G1 X45.643 Y47.237 E.01832
M204 S3000
G1 E-2 F3000
G1 Z.6 F18000
G1 X52.054 Y46.269
G1 Z.2
G1 E2 F1800
M204 S1000
;WIDTH:0.670359
G1 X51.792 Y46.419 E.01573
G1 X50.794 Y47.08 E.06247
G1 X50.675 Y46.726 E.01949
G1 X50.42 Y46.269 E.0273
G1 X51.994 Y46.269 E.08208
M204 S3000
G1 X54.588 Y45.696 F18000
M204 S1000
;WIDTH:0.559999
G1 F1800
G1 X53.613 Y46.1 E.04536
G1 X52.846 Y46.479 E.0368
G1 X52.1 Y46.901 E.0368
G1 X51.38 Y47.363 E.03679
G1 X50.73 Y47.832 E.03447
G1 X50.324 Y48.161 E.02248
G1 X50.335 Y47.771 E.01679
G1 X50.241 Y47.214 E.02429
G1 X50.154 Y46.965 E.01135
G1 X49.878 Y46.472 E.0243
G1 X49.713 Y46.267 E.01128
G1 X49.289 Y45.894 E.0243
G1 X48.917 Y45.697 E.0181
G1 X54.528 Y45.696 E.24122
M204 S3000
G1 E-2 F3000
G1 Z.6 F18000
G1 X48.292 Y45.931
G1 Z.2
G1 E2 F1800
M204 S1000
;TYPE:External perimeter
;WIDTH:0.717458
G1 X48.438 Y46.007 E.0092
;WIDTH:0.678094
G1 X48.583 Y46.084 E.00866
;WIDTH:0.638729
G1 X48.728 Y46.16 E.00813
;WIDTH:0.599364
G1 X48.873 Y46.236 E.00759
;WIDTH:0.559999
G1 X49.372 Y46.656 E.02801
G1 X49.702 Y47.217 E.02801
G1 X49.828 Y47.926 E.03095
G1 X49.741 Y48.427 E.02188
;WIDTH:0.574272
G1 X49.541 Y48.871 E.0215
G1 X49.147 Y49.29 E.02541
;WIDTH:0.57279
G1 X48.895 Y49.523 E.01511
G1 X48.602 Y49.682 E.01472
;WIDTH:0.559999
G1 X48.207 Y49.795 E.01766
G1 X47.678 Y49.816 E.02276
G1 X47.072 Y49.64 E.02713
G1 X46.539 Y49.265 E.02802
G1 X46.162 Y48.733 E.02801
;WIDTH:0.601571
G1 X46.083 Y48.53 E.01015
;WIDTH:0.643142
G1 X46.003 Y48.326 E.01091
;WIDTH:0.684713
G1 X45.924 Y48.123 E.01167
;WIDTH:0.724455
G1 X45.943 Y47.45 E.03814
G1 X45.968 Y47.43 E.00184
;WIDTH:0.683341
G1 X45.994 Y47.411 E.00173
;WIDTH:0.642227
G1 X46.02 Y47.392 E.00162
;WIDTH:0.601113
G1 X46.046 Y47.372 E.00151
;WIDTH:0.559999
G1 X46.279 Y46.857 E.02429
G1 X46.719 Y46.377 E.02801
G1 X47.294 Y46.071 E.02801
G1 X47.425 Y46.039 E.00579
;WIDTH:0.606693
G1 X47.588 Y45.994 E.00794
;WIDTH:0.653387
G1 X47.751 Y45.949 E.00859
;WIDTH:0.700081
G1 X47.915 Y45.904 E.00925
;WIDTH:0.717458
G1 X48.233 Y45.927 E.01787
M204 S3000
G1 E-2 F3000
G1 Z.6 F18000
G1 X69.576 Y46.271
G1 Z.2
G1 E2 F1800
M204 S1000
;TYPE:Perimeter
;WIDTH:0.675279
G1 X69.484 Y46.408 E.00865
G1 X69.207 Y47.077 E.03808
G1 X68.64 Y46.687 E.03617
G1 X67.963 Y46.271 E.04178
G1 X69.516 Y46.271 E.08169
M204 S3000
G1 X71.087 Y45.697 F18000
M204 S1000
;WIDTH:0.559999
G1 F1800
G1 X70.757 Y45.863 E.01589
G1 X70.546 Y46.019 E.01127
G1 X70.155 Y46.427 E.0243
G1 X70.008 Y46.644 E.01128
G1 X69.868 Y46.954 E.01462
G1 X69.709 Y47.416 E.02099
G1 X69.673 Y48.154 E.03176
G1 X69.044 Y47.663 E.03429
G1 X68.34 Y47.177 E.0368
G1 X67.609 Y46.73 E.0368
G1 X66.855 Y46.325 E.0368
G1 X66.08 Y45.963 E.0368
G1 X65.416 Y45.696 E.03077
G1 X71.027 Y45.697 E.24123
M204 S3000
G1 X72.722 Y45.621 F18000
M204 S1000
;WIDTH:0.407153
G1 F1800
G1 X73.14 Y45.621 E.01265
G1 X73.51 Y45.673 E.01132
G1 X73.81 Y45.803 E.00989
;WIDTH:0.408239
G1 X74.065 Y46.016 E.0101
G1 X74.263 Y46.288 E.01022
;WIDTH:0.384377
G1 X74.379 Y46.67 E.01134
;WIDTH:0.42109
G1 X74.372 Y47.224 E.01742
G1 X74.283 Y47.004 E.00745
;WIDTH:0.398199
G1 X73.977 Y46.473 E.0181
;WIDTH:0.407153
G1 X73.614 Y46.106 E.01565
G1 X73.237 Y45.828 E.01418
G1 X72.778 Y45.643 E.01499
M204 S3000
G1 E-2 F3000
G1 Z.6 F18000
G1 X72.922 Y50.794
G1 Z.2
G1 E2 F1800
M204 S1000
;WIDTH:0.674261
G1 X73.232 Y50.675 E.01743
G1 X73.729 Y50.423 E.02925
G1 X73.729 Y52.047 E.08529
G1 X73.552 Y51.74 E.01865
G1 X72.956 Y50.844 E.05649
M204 S3000
G1 E-2 F3000
G1 Z.6 F18000
G1 X74.304 Y54.589
G1 Z.2
G1 E2 F1800
M204 S1000
;WIDTH:0.559999
G1 X73.88 Y53.571 E.04744
G1 X73.493 Y52.794 E.03729
G1 X73.069 Y52.051 E.0368
G1 X72.604 Y51.332 E.0368
G1 X72.232 Y50.82 E.02723
G1 X71.836 Y50.322 E.02737
G1 X72.48 Y50.309 E.02771
G1 X73.019 Y50.143 E.02424
G1 X73.489 Y49.906 E.02264
G1 X73.913 Y49.533 E.0243
G1 X74.078 Y49.329 E.01127
G1 X74.303 Y48.926 E.01985
G1 X74.304 Y54.529 E.24094
M204 S3000
G1 E-2 F3000
G1 Z.6 F18000
G1 X71.184 Y49.578
G1 Z.2
G1 E2 F1800
M204 S1000
;TYPE:External perimeter
;WIDTH:0.579347
G1 X70.768 Y49.216 E.02459
;WIDTH:0.59553
G1 X70.375 Y48.753 E.02794
G1 X70.205 Y48.208 E.02622
;WIDTH:0.559999
G1 X70.179 Y48.021 E.00811
G1 X70.224 Y47.457 E.02431
G1 X70.479 Y46.857 E.02803
G1 X70.919 Y46.377 E.02801
G1 X71.494 Y46.071 E.02801
G1 X71.625 Y46.039 E.00581
;WIDTH:0.606696
G1 X71.789 Y45.994 E.00793
;WIDTH:0.653393
G1 X71.952 Y45.949 E.00858
;WIDTH:0.70009
G1 X72.115 Y45.904 E.00924
;WIDTH:0.717427
G1 X72.492 Y45.931 E.02123
G1 X72.606 Y45.994 E.00729
;WIDTH:0.67807
G1 X72.719 Y46.058 E.00686
;WIDTH:0.638713
G1 X72.832 Y46.122 E.00644
;WIDTH:0.599356
G1 X72.946 Y46.185 E.00601
;WIDTH:0.559999
G1 X73.147 Y46.282 E.00962
G1 X73.572 Y46.656 E.0243
G1 X73.831 Y47.09 E.02175
G1 X73.931 Y47.299 E.00998
G1 X74.027 Y47.856 E.0243
G1 X73.931 Y48.501 E.02801
G1 X73.627 Y49.076 E.02801
G1 X73.147 Y49.518 E.02801
G1 X72.548 Y49.774 E.02801
G1 X71.897 Y49.813 E.02805
;WIDTH:0.560858
G1 X71.507 Y49.724 E.01724
;WIDTH:0.579347
G1 X71.239 Y49.603 E.01311
M204 S3000
G1 E-2 F3000
G1 Z.6 F18000
G1 X73.731 Y69.586
G1 Z.2
G1 E2 F1800
M204 S1000
;TYPE:Perimeter
;WIDTH:0.670283
G1 X73.43 Y69.401 E.01844
G1 X72.925 Y69.201 E.02831
G1 X73.207 Y68.761 E.02728
;WIDTH:0.636007
G1 X73.257 Y68.582 E.00914
;WIDTH:0.592028
G1 X73.307 Y68.404 E.00846
;WIDTH:0.548049
G1 X73.357 Y68.225 E.00778
;WIDTH:0.50407
G1 X73.37 Y68.007 E.00839
;WIDTH:0.497
G1 X73.313 Y67.688 E.01223
G1 X73.5 Y67.642 E.00727
G1 X73.818 Y67.33 E.01683
;WIDTH:0.50407
G1 X73.814 Y68.265 E.03587
;WIDTH:0.545624
G1 X73.793 Y68.459 E.00813
;WIDTH:0.587177
G1 X73.773 Y68.652 E.00881
;WIDTH:0.62873
G1 X73.752 Y68.846 E.00948
;WIDTH:0.670283
